configs/marketplace-logos/nifty_chess.svg

<svg xmlns="http://www.w3.org/2000/svg" fill="none" viewBox="0 0 512 512">
  <path fill="#fff" d="M0 0h512v512H0z"/>
  <path fill="#000" fill-rule="evenodd" d="M80 32C35.816 32 0 67.779 0 111.917v103.892h148.264l5.684 15.983H104v247.743h320V231.792h-64.508l4.864-15.983H512V111.917C512 67.779 476.184 32 432 32h-56c44.184 0 80 35.779 80 79.917v75.921h-32v-75.921C424 67.779 388.184 32 344 32H184c-44.184 0-80 35.779-80 79.917v75.921H72v-75.921C72 67.779 107.816 32 152 32H80ZM0 447.568V231.792h72v247.743H32a32.017 32.017 0 0 1-22.627-9.363A31.95 31.95 0 0 1 0 447.568Zm480 31.967h-24V231.792h56v215.776a31.947 31.947 0 0 1-9.373 22.604A32.015 32.015 0 0 1 480 479.535ZM347.108 349.798c.407.381.726.846.936 1.362l-.032-.032c2.012 8.907 3.988 18.801 3.988 29.69 0 .679-1.492 9.518-33.924 14.84-13.632 2.322-33.268 3.96-61.64 3.96h-.904c-8.22 0-15.68-.136-22.48-.411h-.692a78.368 78.368 0 0 1-1.456-.068l-1.352-.068C162.428 396.034 160 381.737 160 380.85c0-10.885 2.012-20.779 3.988-29.69.208-.511.556-.955.936-1.362 5-12.731 12.56-22.828 21.924-30.305 8.708-6.413 15.644-12.762 21.196-18.9 20.672-23.787 21.54-41.565 21.612-54.024v-8.391a13.258 13.258 0 0 0-.176-.428l-.172-.427H200.76c-2.984-6.925-4.96-12.867-4.96-19.792l32.64-21.018c-9.64-6.553-15.92-16.994-17.864-29.21a40.05 40.05 0 0 1-.868-8.191c0-1.674.068-3.277.24-4.879.134-1.395.327-2.784.576-4.164.032-.099.049-.203.052-.307a44.459 44.459 0 0 1 1.04-4.336c.312-1.159.692-2.249 1.112-3.376.052-.216.128-.408.208-.612l.068-.176a50.155 50.155 0 0 1 1.352-3.068c.176-.308.312-.616.452-.919a42.622 42.622 0 0 1 1.56-2.801c.216-.326.424-.656.624-.991a67.29 67.29 0 0 1 1.7-2.49c.246-.38.513-.745.8-1.095a36.428 36.428 0 0 1 1.8-2.217c.328-.382.664-.756 1.008-1.123a47.176 47.176 0 0 1 1.908-1.914l1.248-1.123 1.98-1.638c.24-.188.48-.368.728-.548l.728-.547c.66-.48 1.32-.955 2.012-1.399l.848-.511.852-.512c.656-.407 1.32-.783 2.012-1.159a84.75 84.75 0 0 1 1.94-.919l.384-.183c.524-.254 1.056-.49 1.596-.708.36-.135.728-.263 1.092-.391.36-.128.728-.256 1.092-.392l.42-.156a32.476 32.476 0 0 1 1.52-.527c.612-.208 1.24-.36 1.88-.508l.584-.139c.312-.068.616-.148.92-.224.304-.08.608-.152.92-.22.696-.156 1.428-.248 2.16-.344l.752-.1.68-.107c.28-.048.56-.096.848-.132a41.025 41.025 0 0 1 4.612-.24c1.56 0 3.088.104 4.616.24.26.032.512.076.76.12.252.04.504.084.764.119l.728.096c.728.096 1.46.192 2.188.348.312.068.616.144.92.22.3.08.604.152.92.224.832.199 1.664.407 2.46.647.52.16 1.016.344 1.524.527l.42.156a27.899 27.899 0 0 1 4.16 1.67l.572.26c.468.212.928.42 1.372.663.428.228.84.472 1.248.716.352.209.707.414 1.064.615.48.28.94.544 1.4.851a42.022 42.022 0 0 1 2.74 1.946l.728.548c.696.511 1.32 1.055 1.976 1.638l1.252 1.123a52.99 52.99 0 0 1 1.908 1.914l.5.559c.164.192.332.38.504.564a56.502 56.502 0 0 1 1.8 2.217l.404.548.4.547a63.65 63.65 0 0 1 2.32 3.477c.56.927 1.08 1.846 1.56 2.801.176.307.316.615.456.919.48.991.936 2.018 1.352 3.076.052.136.096.264.136.392l.14.392c.5 1.306.929 2.639 1.284 3.992.348 1.226.624 2.457.868 3.716l.016.072c.032.099.049.203.052.307.24 1.363.452 2.729.556 4.092.14 1.606.24 3.245.24 4.883 0 2.761-.312 5.494-.864 8.191-1.976 12.216-8.22 22.689-17.864 29.21l32.64 21.018c0 6.929-1.976 12.867-4.96 19.792h-28.548l-.092.231c-.087.203-.16.412-.22.624v8.391c.032 12.459.9 30.237 21.576 54.024 5.548 6.138 12.488 12.451 21.192 18.9 9.368 7.441 16.928 17.574 21.924 30.305Z" clip-rule="evenodd"/>
</svg>

<svg width="512" height="512" viewBox="0 0 512 512" fill="none" xmlns="http://www.w3.org/2000/svg">
<rect width="512" height="512" fill="white"/>
<path fill-rule="evenodd" clip-rule="evenodd" d="M80 32C35.816 32 0 67.7788 0 111.917V215.809H148.264L153.948 231.792H104V479.535H424V231.792H359.492L364.356 215.809H512V111.917C512 67.7788 476.184 32 432 32H376C420.184 32 456 67.7788 456 111.917V187.838H424V111.917C424 67.7788 388.184 32 344 32H184C139.816 32 104 67.7788 104 111.917V187.838H72V111.917C72 67.7788 107.816 32 152 32H80ZM0 447.568V231.792H72V479.535H32C23.5131 479.535 15.3737 476.167 9.37258 470.172C3.37142 464.177 0 456.046 0 447.568ZM480 479.535H456V231.792H512V447.568C512 456.046 508.629 464.177 502.627 470.172C496.626 476.167 488.487 479.535 480 479.535ZM347.108 349.798C347.515 350.179 347.834 350.644 348.044 351.16L348.012 351.128C350.024 360.035 352 369.929 352 380.818C352 381.497 350.508 390.336 318.076 395.658C304.444 397.98 284.808 399.618 256.436 399.618H255.532C247.312 399.618 239.852 399.482 233.052 399.207H232.36C231.874 399.189 231.389 399.166 230.904 399.139L229.552 399.071C162.428 396.034 160 381.737 160 380.85C160 369.965 162.012 360.071 163.988 351.16C164.196 350.649 164.544 350.205 164.924 349.798C169.924 337.067 177.484 326.97 186.848 319.493C195.556 313.08 202.492 306.731 208.044 300.593C228.716 276.806 229.584 259.028 229.656 246.569V238.178C229.6 238.034 229.541 237.892 229.48 237.75L229.308 237.323H200.76C197.776 230.398 195.8 224.456 195.8 217.531L228.44 196.513C218.8 189.96 212.52 179.519 210.576 167.303C210.006 164.61 209.715 161.865 209.708 159.112C209.708 157.438 209.776 155.835 209.948 154.233C210.082 152.838 210.275 151.449 210.524 150.069C210.556 149.97 210.573 149.866 210.576 149.762C210.85 148.3 211.197 146.853 211.616 145.426C211.928 144.267 212.308 143.177 212.728 142.05C212.78 141.834 212.856 141.642 212.936 141.438L213.004 141.262C213.42 140.208 213.872 139.217 214.356 138.194C214.532 137.886 214.668 137.578 214.808 137.275C215.292 136.316 215.812 135.397 216.368 134.474C216.584 134.148 216.792 133.818 216.992 133.483C217.548 132.631 218.104 131.812 218.692 130.993C218.938 130.613 219.205 130.248 219.492 129.898C220.063 129.136 220.663 128.396 221.292 127.681C221.62 127.299 221.956 126.925 222.3 126.558C222.924 125.906 223.548 125.259 224.208 124.644L225.456 123.521L227.436 121.883C227.676 121.695 227.916 121.515 228.164 121.335L228.892 120.788C229.552 120.308 230.212 119.833 230.904 119.389L231.752 118.878L232.604 118.366C233.26 117.959 233.924 117.583 234.616 117.207C235.24 116.9 235.896 116.592 236.556 116.288L236.94 116.105C237.464 115.851 237.996 115.615 238.536 115.397C238.896 115.262 239.264 115.134 239.628 115.006C239.988 114.878 240.356 114.75 240.72 114.614L241.14 114.458C241.642 114.27 242.149 114.094 242.66 113.931C243.272 113.723 243.9 113.571 244.54 113.423L245.124 113.284C245.436 113.216 245.74 113.136 246.044 113.06C246.348 112.98 246.652 112.908 246.964 112.84C247.66 112.684 248.392 112.592 249.124 112.496L249.876 112.396L250.556 112.289C250.836 112.241 251.116 112.193 251.404 112.157C252.932 111.985 254.456 111.917 256.016 111.917C257.576 111.917 259.104 112.021 260.632 112.157C260.892 112.189 261.144 112.233 261.392 112.277C261.644 112.317 261.896 112.361 262.156 112.396L262.884 112.492C263.612 112.588 264.344 112.684 265.072 112.84C265.384 112.908 265.688 112.984 265.992 113.06C266.292 113.14 266.596 113.212 266.912 113.284C267.744 113.483 268.576 113.691 269.372 113.931C269.892 114.091 270.388 114.275 270.896 114.458L271.316 114.614C272.745 115.058 274.137 115.617 275.476 116.284L276.048 116.544C276.516 116.756 276.976 116.964 277.42 117.207C277.848 117.435 278.26 117.679 278.668 117.923C279.02 118.132 279.375 118.337 279.732 118.538C280.212 118.818 280.672 119.082 281.132 119.389C282.071 120.001 282.985 120.65 283.872 121.335L284.6 121.883C285.296 122.394 285.92 122.938 286.576 123.521L287.828 124.644C288.484 125.259 289.108 125.906 289.736 126.558L290.236 127.117C290.4 127.309 290.568 127.497 290.74 127.681C291.364 128.4 291.952 129.147 292.54 129.898L292.944 130.446L293.344 130.993C294.155 132.126 294.929 133.286 295.664 134.47C296.224 135.397 296.744 136.316 297.224 137.271C297.4 137.578 297.54 137.886 297.68 138.19C298.16 139.181 298.616 140.208 299.032 141.266C299.084 141.402 299.128 141.53 299.168 141.658L299.308 142.05C299.808 143.356 300.237 144.689 300.592 146.042C300.94 147.268 301.216 148.499 301.46 149.758L301.476 149.83C301.508 149.929 301.525 150.033 301.528 150.137C301.768 151.5 301.98 152.866 302.084 154.229C302.224 155.835 302.324 157.474 302.324 159.112C302.324 161.873 302.012 164.606 301.46 167.303C299.484 179.519 293.24 189.992 283.596 196.513L316.236 217.531C316.236 224.46 314.26 230.398 311.276 237.323H282.728C282.698 237.4 282.667 237.478 282.636 237.554C282.549 237.757 282.476 237.966 282.416 238.178V246.569C282.448 259.028 283.316 276.806 303.992 300.593C309.54 306.731 316.48 313.044 325.184 319.493C334.552 326.934 342.112 337.067 347.108 349.798Z" fill="black"/>
</svg>
